X:5955
T:Sgt. Early's Dream
O:england
R:Reel
M:C|
K:DDor
cB|:ADFD FAcA|GECD ~E3F|1DA, {C}(3A,G,A, DEFG|Ad {e}(3d^cd fedc:|2\
DA,DE FAcA|GFEF DEFG||\
Ad {e}d^c ~d3e|f2 ed cAGF|ECEG ~c3d|(3edc (3dcB cdBc|\
Ad {e}d^c ~d3e|f2 ed cAGc|AE {G}(3EDE cE {G}(3EDE|CE {G}(3EDE D2 cB||
